!!!OTL: Matrosenlied. / Originalweise.
!!!OTL-incipit: AUF MATROSEN DIE ANKER GELICHTET
!!!COM: A. Polenz
!!!ARE: Europa, Mitteleuropa, Deutschland
!!!SCT: F0755
!!!TXL: @@DE
!!!YEM: Copyright 1995, estate of Helmut Schaffrath.
**kern	**text
*ICvox	*
*clefG2	*
*M4/4	*
*met(c)	*
*k[]	*
*C:	*
!LO:TX:a:t=Moderato.	!
{4.g	1._Auf!
8g	Ma-
=1	=1
4cc	-tro-
8cc	-ſen,
8cc	die
4cc	An-
(8b	-ker
8cc)	ge-
=2	=2
4dd	-lich-
4g}	-tet,
{4g	Se-
[>8g	-gel
8g]	ge-
=3	=3
4g	-ſpannt
4g	und
4dd	Kom-
8cc	-paß
8dd	ge-
=4	=4
4ee	rich-
4cc	-tet!
2r}	.
=5	=5
{2cc	Lieb-
[>4b	-chen,
4b]	A-
=6	=6
2a	-de!
2r}	.
=7	=7
{2a	Schei-
[>4b	-den
4b]	thut
=8	=8
2cc}	weh;
{4cc	Morgen
8bL	.
8ccJ	.
=9	=9
4dd	geht's
[>8dd	in
8dd]	die
8eeL	wo-
8ddJ	.
(8cc	-gen-
8dd)	-de
=10	=10
2ee}	See,
{8ddL	mor-
8ffJ	.
(8ee	-gen
8dd)	.
=11	=11
4cc	geht's
[>8cc	in
8cc]	die
8ccL	wo-
8bJ	.
(8a\	-gen-
8b)	-de
=12	=12
2cc	See.
2r	.
=13	=13
2r}	.
==	==
!!!AGN: Staende -, Matrosen - Lied
!!!ONB: ESAC (Essen Associative Code) Database: FINK
!!!AMT: simple quadruple
!!!AIN: vox
!!!EED: Helmut Schaffrath
!!!EEV: 1.0
!!!RDF**kern: > = above
!!!GTL: Liedertafel- und Gesellschaftslieder
!!Text: Volkstext
!!!source: Musikalischer Hausschatz der Deutschen. Eine Sammlung von über 1000 Liedern und Gesängen mit Singstimmen und Klavierbegleitung. Leipzig, Litterarisches Verlags-Haus.
!!!page: 517
!!!URL-scan: https://www.digitale-sammlungen.de/en/view/bsb11144622?page=468
!!!ENC: Anna Maria Matuszewska
!!!EEV: 2024/08/06
*-	*-
